src/icons/outline/symbols/search.svg

<svg width="24" height="24" viewBox="0 0 24 24" fill="none" xmlns="http://www.w3.org/2000/svg">
<g clip-path="url(#clip0_4473_332)">
<path fill-rule="evenodd" clip-rule="evenodd" d="M10.3896 2C15.0224 2.00019 18.7783 5.75687 18.7783 10.3896C18.7782 12.3987 18.0716 14.243 16.8936 15.6875L21.75 20.543C22.0799 20.8731 22.0801 21.4199 21.75 21.75C21.5793 21.9207 21.3627 22 21.1465 22C20.9303 22 20.7137 21.9206 20.543 21.75L15.6875 16.8936C14.243 18.0716 12.3987 18.7782 10.3896 18.7783V18.7676C5.75687 18.7676 2.00019 15.011 2 10.3896C2 5.76814 5.75675 2 10.3896 2ZM10.3896 3.70703C6.70154 3.70703 3.70703 6.70154 3.70703 10.3896C3.70722 14.0776 6.70166 17.0713 10.3896 17.0713C14.0775 17.0711 17.0711 14.0775 17.0713 10.3896C17.0713 6.70166 14.0662 3.70722 10.3896 3.70703Z" fill="#3C3B44"/>
</g>
<defs>
<clipPath id="clip0_4473_332">
<rect width="24" height="24" fill="white"/>
</clipPath>
</defs>
</svg>

<svg xmlns="http://www.w3.org/2000/svg" width="24" height="24" fill="none" viewBox="0 0 24 24"><g clip-path="url(#a)"><path fill="currentColor" d="M10.39 2a8.39 8.39 0 0 1 6.503 13.686l4.857 4.857a.86.86 0 0 1 0 1.207.85.85 0 0 1-.604.25.85.85 0 0 1-.603-.25l-4.857-4.857a8.35 8.35 0 0 1-5.296 1.885v-.01C5.757 18.768 2 15.01 2 10.39S5.757 2 10.39 2m0 1.707a6.686 6.686 0 0 0-6.683 6.683 6.685 6.685 0 0 0 6.683 6.681 6.685 6.685 0 0 0 6.681-6.681c0-3.688-3.005-6.683-6.681-6.683"/></g><defs><clipPath id="a"><path fill="currentColor" d="M0 0h24v24H0z"/></clipPath></defs></svg>
